wallpaper/Ubuntu 18.10.svg

<svg height="2304" viewBox="0 0 4096 2304" width="4096" xmlns="http://www.w3.org/2000/svg" xmlns:xlink="http://www.w3.org/1999/xlink"><linearGradient id="a" gradientTransform="matrix(2.1333334 0 0 2.1333313 .001 59.176147)" gradientUnits="userSpaceOnUse" x1="229.00079" x2="1113.0087" y1="232.49069" y2="903.68347"><stop offset="0" stop-color="#530046"/><stop offset=".33719084" stop-color="#670953"/><stop offset=".65020347" stop-color="#831339"/><stop offset="1" stop-color="#a41e1f"/></linearGradient><linearGradient id="b" gradientUnits="userSpaceOnUse" x1="1046.9202" x2="4096.0003" y1="542.77643" y2="1152.001"><stop offset="0" stop-color="#fff"/><stop offset="1" stop-color="#fff" stop-opacity="0"/></linearGradient><path d="m.000757.002072h4096v2303.9978h-4096z" fill="url(#a)"/><path d="m2640.1713 2302.4883 1455.829 1.5116v-1463.62483z" fill="#fff" opacity=".05"/><path d="m4096.0003 1072.1525v-1072.150428h-1131.8633z" fill="#fff" fill-opacity=".995798" opacity=".02"/><path d="m4096.0003 840.37507v-840.372998h-3818.5664l-277.4336 296.306598v647.53705l1387.7461 1360.15428 1252.4249-1.5117z" fill="url(#b)" opacity=".04"/><path d="m4096.0003 840.37507v-841.8848h-2448.6038c-172.4327 170.0872-1164.9985 1148.95423-1647.3965 1621.13273v682.8653h2640.1713z" fill="#fff" fill-opacity=".995798" opacity=".02"/></svg>

<?xml version="1.0" encoding="UTF-8" standalone="no"?>
<!-- Created with Inkscape (http://www.inkscape.org/) -->

<svg
   xmlns:dc="http://purl.org/dc/elements/1.1/"
   xmlns:cc="http://creativecommons.org/ns#"
   xmlns:rdf="http://www.w3.org/1999/02/22-rdf-syntax-ns#"
   xmlns:svg="http://www.w3.org/2000/svg"
   xmlns="http://www.w3.org/2000/svg"
   xmlns:xlink="http://www.w3.org/1999/xlink"
   xmlns:sodipodi="http://sodipodi.sourceforge.net/DTD/sodipodi-0.dtd"
   xmlns:inkscape="http://www.inkscape.org/namespaces/inkscape"
   version="1.1"
   id="svg2"
   width="4096"
   height="2304"
   viewBox="0 0 4096 2304"
   sodipodi:docname="Ubuntu 18.10.svg"
   inkscape:version="0.92.3 (2405546, 2018-03-11)">
  <metadata
     id="metadata8">
    <rdf:RDF>
      <cc:Work
         rdf:about="">
        <dc:format>image/svg+xml</dc:format>
        <dc:type
           rdf:resource="http://purl.org/dc/dcmitype/StillImage" />
        <dc:title />
      </cc:Work>
    </rdf:RDF>
  </metadata>
  <defs
     id="defs6">
    <linearGradient
       inkscape:collect="always"
       id="linearGradient835">
      <stop
         style="stop-color:#ffffff;stop-opacity:1"
         offset="0"
         id="stop831" />
      <stop
         style="stop-color:#ffffff;stop-opacity:0;"
         offset="1"
         id="stop833" />
    </linearGradient>
    <linearGradient
       inkscape:collect="always"
       xlink:href="#linearGradient876"
       id="linearGradient880"
       gradientUnits="userSpaceOnUse"
       x1="229.00079"
       y1="232.49069"
       x2="1113.0087"
       y2="903.68347"
       gradientTransform="matrix(2.1333334,0,0,2.1333313,0.001,59.176147)" />
    <linearGradient
       inkscape:collect="always"
       id="linearGradient876">
      <stop
         style="stop-color:#530046;stop-opacity:1"
         offset="0"
         id="stop872" />
      <stop
         id="stop828"
         offset="0.33719084"
         style="stop-color:#670953;stop-opacity:1" />
      <stop
         style="stop-color:#831339;stop-opacity:1"
         offset="0.65020347"
         id="stop830" />
      <stop
         style="stop-color:#a41e1f;stop-opacity:1"
         offset="1"
         id="stop874" />
    </linearGradient>
    <linearGradient
       inkscape:collect="always"
       xlink:href="#linearGradient835"
       id="linearGradient826"
       gradientUnits="userSpaceOnUse"
       x1="1046.9202"
       y1="542.77643"
       x2="4096.0003"
       y2="1152.001" />
  </defs>
  <sodipodi:namedview
     pagecolor="#ffffff"
     bordercolor="#666666"
     borderopacity="1"
     objecttolerance="10"
     gridtolerance="10"
     guidetolerance="10"
     inkscape:pageopacity="0"
     inkscape:pageshadow="2"
     inkscape:window-width="1920"
     inkscape:window-height="1009"
     id="namedview4"
     showgrid="false"
     inkscape:zoom="0.3381347"
     inkscape:cx="2048.0004"
     inkscape:cy="1152.7549"
     inkscape:window-x="0"
     inkscape:window-y="34"
     inkscape:window-maximized="1"
     inkscape:current-layer="svg2" />
  <rect
     style="opacity:1;fill:url(#linearGradient880);fill-opacity:1;stroke:none;stroke-width:2.13333321;stroke-linecap:round;stroke-linejoin:round;stroke-miterlimit:4;stroke-dasharray:none;stroke-dashoffset:0;stroke-opacity:1"
     id="rect4731"
     width="4096"
     height="2303.9978"
     x="0.00075703126"
     y="0.0020724563" />
  <path
     style="opacity:0.05;fill:#ffffff;fill-opacity:1;stroke:none;stroke-width:1px;stroke-linecap:butt;stroke-linejoin:miter;stroke-opacity:1"
     d="m 2640.1713,2302.4883 1455.829,1.5116 V 840.37507 Z"
     id="path864"
     inkscape:connector-curvature="0"
     sodipodi:nodetypes="cccc" />
  <path
     style="opacity:0.02000002;fill:#ffffff;fill-opacity:0.99579827;stroke:none;stroke-width:1px;stroke-linecap:butt;stroke-linejoin:miter;stroke-opacity:1"
     d="M 4096.0003,1072.1525 V 0.002072 H 2964.137 Z"
     id="path895"
     inkscape:connector-curvature="0" />
  <path
     style="opacity:0.04;fill:url(#linearGradient826);fill-opacity:1;stroke:none;stroke-width:1px;stroke-linecap:butt;stroke-linejoin:miter;stroke-opacity:1"
     d="M 4096.0003,840.37507 V 0.002072 H 277.4339 L 3e-4,296.30867 V 943.84572 L 1387.7464,2304 l 1252.4249,-1.5117 z"
     id="path886"
     inkscape:connector-curvature="0"
     sodipodi:nodetypes="cccccccc" />
  <path
     style="opacity:0.02000002;fill:#ffffff;fill-opacity:0.99579827;stroke:none;stroke-width:1px;stroke-linecap:butt;stroke-linejoin:miter;stroke-opacity:1"
     d="M 4096.0003,840.37507 V -1.50973 H 1647.3965 C 1474.9638,168.57747 482.398,1147.4445 0,1619.623 v 682.8653 h 2640.1713 z"
     id="path935"
     inkscape:connector-curvature="0"
     sodipodi:nodetypes="cccccccc" />
</svg>
